!!!OTL: Maedchen und Hasel Es wollt' ein Maedchen spazieren gehn,
!!!ARE: Europa, Mitteleuropa, Deutschland (), Brandenburg, Uckermark, Gramzow
!!!YOR: 6, S. 243
!!    1844 aufgezeichnet
!!!SCT: Q0138A
!!!YEM: Copyright 1995, estate of Helmut Schaffrath.
**kern
*ICvox
*Ivox
*M3/4
*k[f#]
*G:
{8d
=1
8d
8d
4g
8g
8g
=2
8d
16f#
16g
4.a}
{16b
16a
=3
8g
8g
4.g
16a
16b
=4
8cc
8b
4a
8r}
{8b
=5
8g
8g
4.cc
8b
=6
8a
8g
4.a}
{8b
=7
8g
8g
8b
8a
8g
8g
=8
8g
8f#
4g
8r}
==
!!!AGN: Ballade, verlorene Unschuld, Moral
!!!ONB: ESAC (Essen Associative Code) Database: BALLADE
!!!AMT: simple triple
!!!AIN: vox
!!!EED: Helmut Schaffrath
!!!EEV: 1.0
*-
